X: 1
T:Killavel Jig, The
T:Killavil Jig, The
R:jig
D:Matt Molloy, Tommy Peoples, Paul Brady
D:Mary McNamara: Traditional Music from East Clare
Z:id:hn-jig-200
M:6/8
K:Edor
BEE BEE|Bdf edB|BAF FEF|DFA dBA|BEE BEE|Bdf edB|BAF dAF|FED E3:|
Bef gfe|~f3 edB|BAF FEF|DFA dBA|Bef gfe|fef edB|BAF dAF|FED E3:|
